originals/beam.svg

<?xml version="1.0" encoding="UTF-8"?>
<svg width="242px" height="208px" viewBox="0 0 242 208" version="1.1" xmlns="http://www.w3.org/2000/svg" xmlns:xlink="http://www.w3.org/1999/xlink">
    <!-- Generator: Sketch 52.5 (67469) - http://www.bohemiancoding.com/sketch -->
    <title>logo</title>
    <desc>Created with Sketch.</desc>
    <defs>
        <linearGradient x1="0%" y1="50%" x2="69.9236976%" y2="50%" id="linearGradient-1">
            <stop stop-color="#FFFFFF" stop-opacity="0" offset="0%"></stop>
            <stop stop-color="#FFFFFF" offset="100%"></stop>
        </linearGradient>
        <linearGradient x1="96.8343132%" y1="31.5784192%" x2="32.0565226%" y2="34.8028938%" id="linearGradient-2">
            <stop stop-color="#FD76FD" stop-opacity="0" offset="0%"></stop>
            <stop stop-color="#FF51FF" offset="100%"></stop>
        </linearGradient>
        <linearGradient x1="95.9480128%" y1="44.4307516%" x2="45.0288776%" y2="44.4307516%" id="linearGradient-3">
            <stop stop-color="#5300FF" stop-opacity="0" offset="0%"></stop>
            <stop stop-color="#9D6EFF" offset="100%"></stop>
        </linearGradient>
        <linearGradient x1="96.9658805%" y1="35.4091113%" x2="44.1485367%" y2="42.3121076%" id="linearGradient-4">
            <stop stop-color="#AE60D6" stop-opacity="0" offset="0%"></stop>
            <stop stop-color="#AB38E6" offset="100%"></stop>
        </linearGradient>
    </defs>
    <g id="atomic" stroke="none" stroke-width="1" fill="none" fill-rule="evenodd">
        <g id="creating-wallet" transform="translate(-391.000000, -140.000000)">
            <g id="Group-2" transform="translate(391.000000, 140.000000)">
                <g id="logo-2">
                    <polygon id="Combined-Shape" fill="#0B76FF" points="121.003111 139.120816 171.009129 139.120816 121.018638 52.4962076 121.012778 52.5063618 121.018638 0 219 167 121 167"></polygon>
                    <polygon id="Combined-Shape" fill="#24C1FF" transform="translate(72.000000, 83.500000) scale(-1, 1) translate(-72.000000, -83.500000) " points="23.0031114 139.120816 73.0091287 139.120816 23.0186378 52.4962076 23.0127779 52.5063618 23.0186378 0 121 167 23 167"></polygon>
                    <path d="M51,207.822034 L51,187.177966 C52.1744461,187.118644 55.0955044,187 57.3841686,187 C62.4132071,187 64.4609593,189.283898 64.4609593,192.161017 C64.4609593,194.326271 63.6177673,195.779661 62.0518391,196.788136 L62.0518391,196.847458 C63.5876533,197.411017 65.0632394,198.923729 65.0632394,201.59322 C65.0632394,205.95339 61.6302431,208 57.0529146,208 C55.0352764,208 52.2346741,207.940678 51,207.822034 Z M57.6853087,199.487288 L55.8182405,199.487288 L55.8182405,203.372881 C56.1494945,203.461864 56.5409766,203.550847 57.4443966,203.550847 C59.3114648,203.550847 60.2449989,202.75 60.2449989,201.355932 C60.2449989,200.050847 59.2512368,199.487288 57.6853087,199.487288 Z M57.3239406,191.449153 C56.7216606,191.449153 56.3602925,191.508475 55.8182405,191.567797 L55.8182405,195.334746 L57.4142826,195.334746 C58.6489568,195.334746 59.6427189,194.830508 59.6427189,193.317797 C59.6427189,192.072034 58.4983867,191.449153 57.3239406,191.449153 Z M89.6563419,207.881356 L89.6563419,187.118644 L102.153653,187.118644 L102.153653,191.567797 L94.4745823,191.567797 L94.4745823,195.216102 L101.250233,195.216102 L101.250233,199.665254 L94.4745823,199.665254 L94.4745823,203.432203 L102.454793,203.432203 L102.454793,207.881356 L89.6563419,207.881356 Z M124.337635,207.881356 L133.10081,187.118644 L137.407113,187.118644 L146.170288,207.881356 L141.020793,207.881356 L139.274181,203.521186 L130.932602,203.521186 L129.18599,207.881356 L124.337635,207.881356 Z M135.118448,193.199153 L132.739442,199.072034 L137.467341,199.072034 L135.118448,193.199153 Z M168.95655,207.881356 L168.95655,187.118644 L173.804904,187.118644 L180.309529,195.868644 L186.452786,187.118644 L191,187.118644 L191,207.881356 L186.18176,207.881356 L186.18176,194.652542 L180.309529,202.75 L179.616907,202.75 L173.77479,194.741525 L173.77479,207.881356 L168.95655,207.881356 Z" id="BEAM" fill="#25C1FF" fill-rule="nonzero"></path>
                    <polygon id="Triangle-5" fill="#39FFF2" points="121 74 121 128.939482 90 129"></polygon>
                    <polygon id="Triangle-5" fill="#00E2C2" transform="translate(136.500000, 101.500000) scale(-1, 1) translate(-136.500000, -101.500000) " points="152 74 152 128.939482 121 129"></polygon>
                    <polygon id="Rectangle-5" fill="url(#linearGradient-1)" points="0 57 121 107 121 114 0 84"></polygon>
                    <polygon id="Rectangle-5" fill="url(#linearGradient-2)" points="242 36.032052 121 107 121 108.92104 242 59"></polygon>
                    <polygon id="Rectangle-5" fill="url(#linearGradient-3)" transform="translate(181.453161, 97.994376) scale(-1, 1) rotate(-180.000000) translate(-181.453161, -97.994376) " points="241.906323 90.9887517 121 82 121 83.9887517 241.906323 113.988752"></polygon>
                    <polygon id="Rectangle-5" fill="url(#linearGradient-4)" points="242 59.96331 121 109.037861 121 112 242 81"></polygon>
                </g>
            </g>
        </g>
    </g>
</svg>

<svg xmlns="http://www.w3.org/2000/svg" width="242" height="208" viewBox="0 0 242 208"><defs><linearGradient id="beam_svg-a" x1="0%" x2="69.924%" y1="50%" y2="50%"><stop offset="0%" stop-color="#FFF" stop-opacity="0"/><stop offset="100%" stop-color="#FFF"/></linearGradient><linearGradient id="beam_svg-b" x1="96.834%" x2="32.057%" y1="31.578%" y2="34.803%"><stop offset="0%" stop-color="#FD76FD" stop-opacity="0"/><stop offset="100%" stop-color="#FF51FF"/></linearGradient><linearGradient id="beam_svg-c" x1="95.948%" x2="45.029%" y1="44.431%" y2="44.431%"><stop offset="0%" stop-color="#5300FF" stop-opacity="0"/><stop offset="100%" stop-color="#9D6EFF"/></linearGradient><linearGradient id="beam_svg-d" x1="96.966%" x2="44.149%" y1="35.409%" y2="42.312%"><stop offset="0%" stop-color="#AE60D6" stop-opacity="0"/><stop offset="100%" stop-color="#AB38E6"/></linearGradient></defs><g fill="none" fill-rule="evenodd"><path fill="#0B76FF" d="M121.003 139.12h50.006l-49.99-86.624-.006.01L121.019 0 219 167h-98z"/><path fill="#24C1FF" d="M120.997 139.12H70.99l49.99-86.624.006.01L120.981 0 23 167h98z"/><path fill="#25C1FF" fill-rule="nonzero" d="M51 207.822v-20.644c1.174-.06 4.096-.178 6.384-.178 5.03 0 7.077 2.284 7.077 5.161 0 2.165-.843 3.619-2.41 4.627v.06c1.537.563 3.012 2.076 3.012 4.745 0 4.36-3.433 6.407-8.01 6.407-2.018 0-4.818-.06-6.053-.178m6.685-8.335h-1.867v3.886c.331.089.723.178 1.626.178 1.867 0 2.801-.801 2.801-2.195 0-1.305-.994-1.869-2.56-1.869m-.361-8.038c-.602 0-.964.06-1.506.119v3.767h1.596c1.235 0 2.229-.504 2.229-2.017 0-1.246-1.145-1.869-2.32-1.869m32.332 16.432V187.12h12.498v4.449h-7.68v3.648h6.776v4.45h-6.775v3.766h7.98v4.45zm34.682 0 8.763-20.762h4.306l8.763 20.762h-5.15l-1.746-4.36h-8.341l-1.747 4.36zm10.78-14.682-2.379 5.873h4.728zm33.839 14.682V187.12h4.848l6.505 8.75 6.143-8.75H191v20.762h-4.818v-13.228l-5.872 8.097h-.693l-5.842-8.008v13.14z"/><path fill="#39FFF2" d="M121 74v54.94L90 129z"/><path fill="#00E2C2" d="M121 74v54.94l31 .06z"/><path fill="url(#beam_svg-a)" d="m0 57 121 50v7L0 84z"/><path fill="url(#beam_svg-b)" d="M242 36.032 121 107v1.921L242 59z"/><path fill="url(#beam_svg-c)" d="M241.906 90.989 121 82v1.989l120.906 30z" transform="matrix(1 0 0 -1 0 195.989)"/><path fill="url(#beam_svg-d)" d="m242 59.963-121 49.075V112l121-31z"/></g></svg>
